X:758
%%etbk:tnset id:463,pos:1,rep:3x,ant:
%%etbk:pldat 2016-09-10T14:54,2016-08-18T18:49,2016-08-17T16:11,2016-08-16T16:12,2016-08-15T19:19,2016-08-12T16:40,2016-08-11T18:53,2016-08-10T16:29,2016-08-09T15:42,2016-08-08T18:42,2016-08-06T11:18,2016-06-09T19:06,2016-06-08T16:21,2016-06-07T16:21,2016-06-04T15:27,2016-06-02T18:34,2016-06-01T16:39,2016-05-31T16:55,2016-05-30T18:49,2016-05-29T11:41,2016-05-19T18:56,2016-05-18T16:42,2016-05-17T16:27,2016-05-16T14:50,2016-05-14T16:22,2016-05-13T16:49,2016-05-11T16:31,2016-05-10T18:18,2016-03-03T19:05,2016-03-02T16:22,2016-03-01T17:31,2016-02-29T18:48,2016-02-27T13:41,2016-02-23T16:38,2016-02-16T17:45,2016-02-13T16:17,2016-01-05T17:01,2016-01-04T18:06,2016-01-03T13:09,2016-01-01T16:14,2015-12-31T13:39,2015-12-29T16:59,2015-12-28T16:58,2015-12-23T16:01,2015-12-21T18:34,2015-12-01T16:44,2015-11-28T16:51,2015-11-25T15:29,2015-11-20T16:41,2015-11-19T18:34,2015-11-18T16:25,2015-11-17T15:42,2015-11-15T14:36,2015-11-14T15:19,2015-11-13T17:53,2015-11-12T18:52,2015-11-11T16:31,2015-11-10T15:58,2015-11-09T18:53,2015-11-08T13:55,2015-11-04T17:17,2015-11-01T15:28,2015-10-27T17:12,2015-10-25T15:11,2015-10-20T15:58,2015-10-17T15:16,2015-10-14T16:54,2015-10-13T17:28,2015-10-12T17:57,2015-10-06T17:21,2015-09-30T16:53,2015-09-29T16:51,2015-09-28T19:08,2015-09-10T16:51,2015-09-09T17:15,2015-09-08T19:05,2015-09-07T18:35,2015-09-03T17:14,2015-09-02T16:46,2015-09-01T17:31,2015-08-31T19:07,2015-08-30T15:22,2015-08-28T19:20,2015-08-27T18:48,2015-08-24T19:06,2015-08-19T16:16,2015-08-18T16:40,2015-08-17T19:06,2015-08-10T19:27,2015-08-06T18:10,2015-08-05T17:00,2015-08-04T16:10,2015-08-03T18:51,2015-08-02T11:49,2015-08-01T16:56,2015-07-31T17:54,2015-07-30T19:14,2015-07-29T15:52,2015-07-27T18:14,2015-07-25T14:24,2015-07-23T18:23,2015-07-22T16:39,2015-07-20T18:09,2015-07-19T14:53,2015-07-18T15:07,2015-07-17T16:46,2015-07-16T16:55,2015-07-15T17:24,2015-07-11T13:59,2015-07-08T11:40
T:Belfast Riddims
T: Back To Belfast
Z: Piano Box Version by Martin Fleischmann
H: Created 2015-07-07 /  Last Modified 2015-07-07
R: reel
M: 4/4
L: 1/8
K: Ddor
|: "dm"z2 [Ad][Ad]-[Ad][Ad] [G2c2]| [D2A2] [D2A2]z2 z2 |1"am"G2z2GFG2 | "dm"[D8A8]:|2 "am"G2G2GFE2 | "dm"D8||


